X:15453
T:Silver Wings Polka
C:Adam Rennie
S:78rpm record
Z:Nigel Gatherer
M:4/4
L:1/16
K:F
c2||\
a>aa>a f2A2    e2d2   c4     |F>FE>F  A2c2   e2d2    B4   |\
e>ee>e d2d2    e2e2   f4     |g>fe>f  g>ag>f e2c2    d2e2 |
a>aa>a f2A2    e2d2   c4     |F>FE>F  A2c2   d6      f2   |\
e>gd>f e2e2    e>gd>f e2e2   |e>c=B>c d2e2   f2c2 [1 f2c2:|\
                                                  [2 f4  ||
c4-    c>d=B>d c4-    c>d=B>d|c2d2    e2f2   f2e2    e4   |\
B4-    B>AG>A  B4-    B>AG>A |B2c2    d2e2   e2A2    A4   |
c4-    c>d=B>d c4-    c>d=B>d|c2d2    e2f2   a2g2    d4   |\
g>fd>f e2e2    G>FD>F E2E2   |e>c=B>c d2e2   f2c2    f4  :|
a>fe>g f2f2    a>fe>g f2f2   |a>fe>f  b2g2   d8           |\
g>fe>f e2e2    g>fe>f e2e2   |e>c=B>c d2c2   F2c2    d2e2 | 
a>fe>g f2f2    a>fe>g f2f2   |a>fe>f  b2g2   d8           |\
g>fe>f e2e2    g>fe>f e2e2   |e>c=B>c d2e2   f2c2    f4  :|
a>aa>a f2A2    e2d2   c4     |F>FE>F  A2c2   e2d2    B4   |\
e>ee>e d2d2    e2e2   f4     |g>fe>f  g>ag>f e2c2    d2e2 |
a>aa>a f2A2    e2d2   c4     |F>FE>F  A2c2   d6        f2 |\
e>gd>f e2e2    e>gd>f e2e2   |e>c=B>c d2e2   f2c2 [1 f2c2:|\
                                                  [2 f4  |]
